; generated by PrusaSlicer 2.4.0 on 2021-12-30 at 15:25:18 UTC


;
;

;
;
; 

; external perimeters extrusion width = 0.45mm
; perimeters extrusion width = 0.45mm
; infill extrusion width = 0.45mm
; solid infill extrusion width = 0.45mm
; top infill extrusion width = 0.40mm
; first layer extrusion width = 0.42mm

M73 P0 R116
M201 X2500 Y2500 Z400 E5000 ; sets maximum accelerations, mm/sec^2
M203 X180 Y180 Z12 E80 ; sets maximum feedrates, mm/sec
M204 P1250 R1250 T2500 ; sets acceleration (P, T) and retract acceleration (R), mm/sec^2
M205 X8.00 Y8.00 Z2.00 E10.00 ; sets the jerk limits, mm/sec
M205 S0 T0 ; sets the minimum extruding and travel feed rate, mm/sec
M107
;TYPE:Custom
G90 ; use absolute coordinates
M83 ; extruder relative mode
M104 S170 ; set extruder temp for bed leveling
M140 S60 ; set bed temp
M109 R170 ; wait for bed leveling temp
M190 S60 ; wait for bed temp
M204 T1250 ; set travel acceleration
G28 ; home all without mesh bed level
G29 ; mesh bed leveling 
M204 T2500 ; restore travel acceleration
M104 S215 ; set extruder temp
G92 E0
G1 Y-2 X179 F2400
G1 Z3 F720
M109 S215 ; wait for extruder temp

; intro line
G1 X170 F1000
G1 Z0.2 F720
G1 X110 E8 F900
G1 X40 E10 F700
G92 E0

M221 S95 ; set flow
G21 ; set units to millimeters
G90 ; use absolute coordinates
M83 ; use relative distances for extrusion
M900 K0.2 ; Filament gcode LA 1.5
; ; Filament gcode LA 1.0
M107
;LAYER_CHANGE
;Z:0.2
;HEIGHT:0.2
;BEFORE_LAYER_CHANGE
G92 E0.0
;0.2


G1 E-3.2 F4200
G1 Z.2 F720
;AFTER_LAYER_CHANGE
;0.2
G1 Z.4
G1 X50.424 Y74.203 F9000
G1 Z.2 F720
G1 E3.2 F2400
M204 P800
;TYPE:Skirt/Brim
;WIDTH:0.42
G1 F1200
G1 X51.239 Y73.706 E.02991
G1 X52.027 Y73.337 E.02728
G1 X53.763 Y72.818 E.05681
G1 X55.715 Y72.623 E.06154
G1 X124.277 Y72.623 E2.1497
G1 X125.88 Y72.754 E.05042
G1 X127.288 Y73.088 E.04539
G1 X128.547 Y73.595 E.04254
G1 X129.706 Y74.296 E.04247
G1 X130.658 Y75.128 E.03965
G1 X131.473 Y76.188 E.04192
G1 X131.984 Y77.272 E.03759
G1 X132.248 Y78.456 E.03803
G1 X132.277 Y101 E.70685
G1 X132.222 Y101.751 E.02362
G1 X132.062 Y102.484 E.02352
G1 X131.758 Y103.281 E.02674
G1 X131.404 Y103.922 E.02295
G1 X130.883 Y104.622 E.02737
G1 X130.248 Y105.267 E.02837
G1 X129.554 Y105.811 E.02766
G1 X128.817 Y106.264 E.02711
G1 X127.909 Y106.689 E.03145
G1 X126.179 Y107.193 E.05649
G1 X124.243 Y107.377 E.06098
G1 X55.233 Y107.363 E2.16375
G1 X53.945 Y107.216 E.04065
G1 X52.927 Y106.977 E.03279
G1 X51.757 Y106.548 E.03909
G1 X50.767 Y106.023 E.03513
G1 X49.902 Y105.397 E.03346
M73 P0 R115
G1 X49.123 Y104.63 E.03428
G1 X48.545 Y103.841 E.03068
G1 X48.101 Y102.958 E.03097
G1 X47.821 Y102.003 E.03122
G1 X47.723 Y101.036 E.03046
G1 X47.767 Y78.324 E.71213
G1 X47.911 Y77.61 E.02284
G1 X48.193 Y76.824 E.02617
G1 X48.599 Y76.073 E.02676
G1 X49.078 Y75.423 E.02531
G1 X49.679 Y74.799 E.02718
G1 X50.377 Y74.24 E.02804
M204 P1000
; printing object stand 1x.stl id:0 copy 0
G1 E-2.24 F4200
;WIPE_START
G1 F7200
G1 X51.239 Y73.706 E-.5617
G1 X51.811 Y73.438 E-.3503
;WIPE_END
G1 E-.048 F4200
G1 Z.4 F720
G1 X111.838 Y97.775 F9000
G1 Z.2 F720
G1 E3.2 F2400
M204 P800
;TYPE:Perimeter
G1 F1200
G1 X111.999 Y97.479 E.01055
G1 X112.212 Y97.167 E.01184
G1 X112.455 Y96.878 E.01184
G1 X112.725 Y96.614 E.01184
G1 X113.02 Y96.379 E.01184
G1 X113.337 Y96.174 E.01184
G1 X113.674 Y96.002 E.01184
G1 X114.025 Y95.864 E.01184
G1 X114.389 Y95.761 E.01184
G1 X114.76 Y95.696 E.01184
G1 X115.137 Y95.668 E.01184
G1 X115.514 Y95.677 E.01184
G1 X115.889 Y95.724 E.01184
G1 X116.257 Y95.808 E.01184
G1 X116.615 Y95.928 E.01184
G1 X116.959 Y96.084 E.01184
G1 X117.287 Y96.272 E.01184
G1 X117.593 Y96.493 E.01184
G1 X117.876 Y96.743 E.01184
G1 X118.133 Y97.019 E.01184
G1 X118.361 Y97.32 E.01184
G1 X118.558 Y97.643 E.01184
G1 X118.722 Y97.983 E.01184
G1 X118.851 Y98.338 E.01184
G1 X118.944 Y98.704 E.01184
G1 X119 Y99.077 E.01183
G1 X119.019 Y99.45 E.01171
G1 X118.979 Y100.011 E.01764
G1 X118.902 Y100.389 E.01209
G1 X118.791 Y100.75 E.01184
G1 X118.644 Y101.098 E.01184
G1 X118.464 Y101.429 E.01184
G1 X118.251 Y101.741 E.01184
G1 X118.008 Y102.031 E.01184
G1 X117.738 Y102.294 E.01184
G1 X117.443 Y102.53 E.01184
G1 X117.125 Y102.735 E.01184
G1 X116.789 Y102.907 E.01184
G1 X116.438 Y103.045 E.01184
G1 X116.074 Y103.147 E.01184
G1 X115.702 Y103.213 E.01184
G1 X115.326 Y103.241 E.01184
G1 X114.948 Y103.232 E.01184
G1 X114.574 Y103.185 E.01184
G1 X114.206 Y103.101 E.01184
G1 X113.848 Y102.98 E.01184
G1 X113.503 Y102.825 E.01184
G1 X113.176 Y102.636 E.01184
G1 X112.87 Y102.416 E.01184
G1 X112.587 Y102.166 E.01184
G1 X112.33 Y101.889 E.01184
G1 X112.102 Y101.588 E.01184
G1 X111.905 Y101.266 E.01184
G1 X111.741 Y100.926 E.01184
G1 X111.612 Y100.571 E.01184
G1 X111.517 Y100.197 E.01209
G1 X111.448 Y99.639 E.01764
G1 X111.448 Y99.265 E.01171
G1 X111.486 Y98.89 E.01183
G1 X111.561 Y98.52 E.01184
G1 X111.672 Y98.159 E.01184
G1 X111.811 Y97.828 E.01125
M204 P1000
G1 X112.027 Y98.288 F9000
M204 P800
;TYPE:External perimeter
G1 F1200
G1 X112.159 Y97.975 E.01066
G1 X112.321 Y97.676 E.01066
G1 X112.513 Y97.395 E.01066
G1 X112.731 Y97.135 E.01066
G1 X112.975 Y96.897 E.01066
G1 X113.241 Y96.685 E.01066
G1 X113.526 Y96.501 E.01066
G1 X113.829 Y96.346 E.01066
G1 X114.145 Y96.221 E.01066
G1 X114.473 Y96.129 E.01066
G1 X114.807 Y96.07 E.01066
G1 X115.146 Y96.045 E.01066
G1 X115.486 Y96.053 E.01066
G1 X115.824 Y96.096 E.01066
G1 X116.155 Y96.171 E.01066
G1 X116.477 Y96.28 E.01066
G1 X116.787 Y96.419 E.01066
G1 X117.082 Y96.589 E.01066
G1 X117.358 Y96.788 E.01066
G1 X117.613 Y97.013 E.01066
G1 X117.844 Y97.262 E.01066
G1 X118.049 Y97.533 E.01066
G1 X118.226 Y97.823 E.01066
G1 X118.374 Y98.13 E.01066
G1 X118.49 Y98.449 E.01066
G1 X118.574 Y98.779 E.01066
G1 X118.625 Y99.115 E.01066
G1 X118.642 Y99.446 E.01039
G1 X118.604 Y99.96 E.01616
G1 X118.536 Y100.296 E.01075
G1 X118.436 Y100.621 E.01066
G1 X118.304 Y100.934 E.01066
G1 X118.141 Y101.232 E.01066
G1 X117.95 Y101.513 E.01066
G1 X117.731 Y101.774 E.01066
G1 X117.488 Y102.011 E.01066
G1 X117.222 Y102.223 E.01066
G1 X116.937 Y102.408 E.01066
G1 X116.634 Y102.563 E.01066
G1 X116.318 Y102.687 E.01066
G1 X115.99 Y102.779 E.01066
G1 X115.655 Y102.838 E.01066
G1 X115.316 Y102.863 E.01066
G1 X114.977 Y102.855 E.01066
G1 X114.639 Y102.813 E.01066
G1 X114.308 Y102.737 E.01066
G1 X113.985 Y102.629 E.01066
G1 X113.676 Y102.489 E.01066
G1 X113.381 Y102.319 E.01066
G1 X113.105 Y102.121 E.01066
G1 X112.85 Y101.896 E.01066
G1 X112.619 Y101.646 E.01066
G1 X112.414 Y101.375 E.01066
G1 X112.236 Y101.085 E.01066
G1 X112.089 Y100.779 E.01066
G1 X111.973 Y100.459 E.01066
G1 X111.888 Y100.127 E.01075
G1 X111.825 Y99.616 E.01616
G1 X111.825 Y99.284 E.01039
G1 X111.859 Y98.946 E.01066
G1 X111.927 Y98.613 E.01066
G1 X112.009 Y98.345 E.00878
M204 P1000
G1 X111.808 Y98.027 F9000
G1 E-2.24 F4200
;WIPE_START
G1 F7200
G1 X112.159 Y97.975 E-.22151
G1 X112.321 Y97.676 E-.18841
G1 X112.513 Y97.395 E-.1884
G1 X112.731 Y97.135 E-.18841
G1 X112.893 Y96.977 E-.12526
;WIPE_END
G1 E-.048 F4200
G1 Z.4 F720
G1 X114.455 Y83.958 F9000
G1 Z.2 F720
G1 E3.2 F2400
M204 P800
;TYPE:Perimeter
G1 F1200
G1 X114.1 Y83.839 E.01173
G1 X113.756 Y83.683 E.01184
G1 X113.429 Y83.494 E.01184
G1 X113.122 Y83.274 E.01184
G1 X112.839 Y83.024 E.01184
G1 X112.582 Y82.747 E.01184
G1 X112.354 Y82.446 E.01184
G1 X112.158 Y82.124 E.01184
G1 X111.994 Y81.784 E.01184
G1 X111.865 Y81.429 E.01184
G1 X111.771 Y81.063 E.01184
G1 X111.715 Y80.69 E.01184
G1 X111.696 Y80.313 E.01184
G1 X111.715 Y79.935 E.01184
G1 X111.771 Y79.562 E.01184
G1 X111.865 Y79.196 E.01184
G1 X111.996 Y78.834 E.01207
G1 X112.248 Y78.343 E.01729
G1 X112.465 Y78.025 E.01207
G1 X112.707 Y77.736 E.01184
G1 X112.978 Y77.472 E.01184
G1 X113.273 Y77.237 E.01184
G1 X113.59 Y77.032 E.01184
G1 X113.926 Y76.86 E.01184
G1 X114.278 Y76.722 E.01184
G1 X114.641 Y76.62 E.01184
G1 X115.013 Y76.554 E.01184
G1 X115.39 Y76.526 E.01184
G1 X115.767 Y76.535 E.01184
G1 X116.142 Y76.582 E.01184
G1 X116.51 Y76.666 E.01184
G1 X116.868 Y76.786 E.01184
G1 X117.212 Y76.942 E.01184
G1 X117.546 Y77.135 E.01209
G1 X117.994 Y77.475 E.01764
G1 X118.261 Y77.736 E.01171
G1 X118.504 Y78.025 E.01183
G1 X118.716 Y78.337 E.01184
G1 X118.897 Y78.669 E.01184
G1 X119.044 Y79.017 E.01184
G1 X119.155 Y79.378 E.01184
G1 X119.23 Y79.748 E.01184
G1 X119.267 Y80.124 E.01184
G1 X119.267 Y80.501 E.01184
G1 X119.23 Y80.877 E.01184
G1 X119.155 Y81.247 E.01184
G1 X119.044 Y81.608 E.01184
G1 X118.897 Y81.956 E.01184
G1 X118.716 Y82.288 E.01184
G1 X118.504 Y82.6 E.01184
G1 X118.261 Y82.889 E.01184
G1 X117.99 Y83.153 E.01184
G1 X117.695 Y83.388 E.01184
G1 X117.378 Y83.593 E.01184
G1 X117.042 Y83.765 E.01184
G1 X116.691 Y83.903 E.01184
G1 X116.327 Y84.005 E.01184
G1 X115.955 Y84.071 E.01184
G1 X115.579 Y84.099 E.01184
G1 X115.201 Y84.09 E.01184
G1 X114.826 Y84.043 E.01184
G1 X114.513 Y83.971 E.01007
M204 P1000
G1 X114.892 Y83.671 F9000
M204 P800
;TYPE:External perimeter
G1 F1200
G1 X114.56 Y83.595 E.01066
G1 X114.238 Y83.487 E.01066
G1 X113.928 Y83.347 E.01066
G1 X113.634 Y83.177 E.01066
G1 X113.358 Y82.979 E.01066
G1 X113.103 Y82.754 E.01066
G1 X112.872 Y82.505 E.01066
G1 X112.666 Y82.234 E.01066
G1 X112.489 Y81.944 E.01066
G1 X112.342 Y81.637 E.01066
G1 X112.225 Y81.318 E.01066
G1 X112.141 Y80.988 E.01066
G1 X112.091 Y80.652 E.01066
G1 X112.074 Y80.313 E.01066
G1 X112.091 Y79.973 E.01066
G1 X112.141 Y79.637 E.01066
G1 X112.225 Y79.307 E.01066
G1 X112.342 Y78.985 E.01074
G1 X112.573 Y78.536 E.01582
G1 X112.766 Y78.253 E.01074
G1 X112.984 Y77.993 E.01066
G1 X113.228 Y77.756 E.01066
G1 X113.493 Y77.544 E.01066
G1 X113.779 Y77.359 E.01066
G1 X114.081 Y77.204 E.01066
G1 X114.398 Y77.08 E.01066
G1 X114.725 Y76.988 E.01066
G1 X115.06 Y76.929 E.01066
G1 X115.399 Y76.903 E.01066
G1 X115.739 Y76.912 E.01066
G1 X116.076 Y76.954 E.01066
G1 X116.408 Y77.03 E.01066
G1 X116.73 Y77.138 E.01066
G1 X117.04 Y77.278 E.01066
G1 X117.337 Y77.449 E.01075
G1 X117.747 Y77.761 E.01616
G1 X117.984 Y77.993 E.01039
G1 X118.203 Y78.253 E.01066
G1 X118.394 Y78.534 E.01066
G1 X118.557 Y78.833 E.01066
G1 X118.689 Y79.146 E.01066
G1 X118.789 Y79.471 E.01066
G1 X118.856 Y79.804 E.01066
G1 X118.89 Y80.143 E.01066
G1 X118.89 Y80.483 E.01066
G1 X118.856 Y80.821 E.01066
G1 X118.789 Y81.154 E.01066
G1 X118.689 Y81.479 E.01066
G1 X118.557 Y81.792 E.01066
G1 X118.394 Y82.091 E.01066
G1 X118.203 Y82.372 E.01066
G1 X117.984 Y82.632 E.01066
G1 X117.741 Y82.87 E.01066
G1 X117.475 Y83.081 E.01066
G1 X117.189 Y83.266 E.01066
G1 X116.887 Y83.421 E.01066
G1 X116.57 Y83.545 E.01066
G1 X116.243 Y83.637 E.01066
G1 X115.908 Y83.696 E.01066
G1 X115.569 Y83.722 E.01066
G1 X115.229 Y83.713 E.01066
G1 X114.951 Y83.678 E.00878
M204 P1000
G1 X114.673 Y83.931 F9000
G1 E-2.24 F4200
;WIPE_START
G1 F7200
G1 X114.56 Y83.595 E-.22151
G1 X114.238 Y83.487 E-.18841
G1 X113.928 Y83.347 E-.1884
G1 X113.634 Y83.177 E-.1884
G1 X113.45 Y83.045 E-.12528
;WIPE_END
G1 E-.048 F4200
G1 Z.4 F720
G1 X111.187 Y75.787 F9000
G1 Z.2 F720
G1 E3.2 F2400
M204 P800
;TYPE:Perimeter
G1 F1200
G1 X124.239 Y75.787 E.40925
G1 X124.651 Y75.799 E.01291
G1 X125.151 Y75.845 E.01576
G1 X125.895 Y75.982 E.02371
G1 X126.356 Y76.113 E.01502
G1 X126.801 Y76.276 E.01485
G1 X127.119 Y76.42 E.01096
G1 X127.512 Y76.634 E.01403
G1 X127.742 Y76.782 E.00858
G1 X128.069 Y77.031 E.01287
G1 X128.35 Y77.293 E.01205
G1 X128.59 Y77.572 E.01154
G1 X128.717 Y77.75 E.00684
G1 X128.882 Y78.04 E.01047
G1 X129 Y78.328 E.00975
G1 X129.073 Y78.609 E.00912
G1 X129.113 Y79.03 E.01324
G1 X129.113 Y100.983 E.68831
G1 X129.07 Y101.412 E.01352
G1 X128.984 Y101.72 E.01004
G1 X128.911 Y101.898 E.00602
G1 X128.674 Y102.311 E.01495
G1 X128.393 Y102.659 E.01402
G1 X128.044 Y102.989 E.01507
G1 X127.533 Y103.352 E.01964
G1 X126.914 Y103.675 E.02191
G1 X126.443 Y103.858 E.01583
G1 X125.843 Y104.03 E.01955
G1 X125.216 Y104.146 E.02002
G1 X124.563 Y104.205 E.02056
G1 X110.787 Y104.213 E.43193
G1 X110.787 Y75.787 E.89127
G1 X111.127 Y75.787 E.01066
M204 P1000
G1 X110.41 Y75.41 F9000
M204 P800
;TYPE:External perimeter
G1 F1200
G1 X124.245 Y75.41 E.43378
G1 X124.674 Y75.422 E.01346
G1 X125.203 Y75.471 E.01666
G1 X125.981 Y75.615 E.02479
G1 X126.473 Y75.754 E.01603
G1 X126.944 Y75.927 E.01574
G1 X127.287 Y76.082 E.01183
G1 X127.705 Y76.31 E.01491
G1 X127.959 Y76.474 E.00948
G1 X128.312 Y76.743 E.01393
G1 X128.622 Y77.032 E.01327
G1 X128.887 Y77.339 E.01274
G1 X129.035 Y77.547 E.008
G1 X129.221 Y77.875 E.01182
G1 X129.358 Y78.208 E.0113
G1 X129.446 Y78.544 E.01088
G1 X129.49 Y79.012 E.01476
G1 X129.49 Y100.993 E.68919
G1 X129.475 Y101.263 E.00849
G1 X129.439 Y101.492 E.00727
G1 X129.341 Y101.842 E.01141
G1 X129.251 Y102.063 E.00748
G1 X128.986 Y102.525 E.01668
G1 X128.671 Y102.916 E.01577
G1 X128.283 Y103.281 E.01669
G1 X127.73 Y103.675 E.02127
G1 X127.07 Y104.019 E.02337
G1 X126.564 Y104.216 E.01703
G1 X125.93 Y104.397 E.02067
G1 X125.267 Y104.52 E.02113
G1 X124.584 Y104.582 E.02151
G1 X110.41 Y104.59 E.44442
G1 X110.41 Y75.47 E.91304
M204 P1000
G1 X110.783 Y75.556 F9000
G1 E-2.24 F4200
;WIPE_START
G1 F7200
G1 X112.056 Y75.463 E-.912
;WIPE_END
G1 E-.048 F4200
G1 Z.4 F720
G1 X127.301 Y76.648 F9000
G1 Z.2 F720
G1 E3.2 F2400
M204 P800
;TYPE:Solid infill
;WIDTH:0.423723
G1 F1200
G1 X128.161 Y77.507 E.0385
G1 X128.368 Y77.747 E.01002
G1 X128.627 Y78.164 E.01557
G1 X128.731 Y78.418 E.00868
G1 X128.796 Y78.681 E.0086
G1 X126.629 Y76.514 E.09704
G1 X126.269 Y76.382 E.01215
G1 X125.836 Y76.26 E.01425
G1 X128.83 Y79.254 E.13408
G1 X128.83 Y79.792 E.01705
G1 X125.175 Y76.137 E.16367
G1 X124.579 Y76.08 E.01896
G1 X128.83 Y80.331 E.19036
G1 X128.83 Y80.869 E.01705
G1 X124.031 Y76.07 E.21492
G1 X123.492 Y76.07 E.01705
G1 X128.83 Y81.408 E.23903
G1 X128.83 Y81.946 E.01705
G1 X122.954 Y76.07 E.26315
G1 X122.415 Y76.07 E.01705
G1 X128.83 Y82.485 E.28726
G1 X128.83 Y83.024 E.01705
G1 X121.877 Y76.07 E.31138
G1 X121.338 Y76.07 E.01705
G1 X128.83 Y83.562 E.3355
G1 X128.83 Y84.101 E.01705
G1 X120.799 Y76.07 E.35961
G1 X120.261 Y76.07 E.01705
G1 X128.83 Y84.639 E.38373
G1 X128.83 Y85.178 E.01705
G1 X119.722 Y76.07 E.40784
G1 X119.184 Y76.07 E.01705
G1 X128.83 Y85.716 E.43196
G1 X128.83 Y86.255 E.01705
G1 X118.645 Y76.07 E.45607
G1 X118.107 Y76.07 E.01705
G1 X128.83 Y86.793 E.48019
G1 X128.83 Y87.332 E.01705
G1 X117.568 Y76.07 E.5043
G1 X117.03 Y76.07 E.01705
G1 X128.83 Y87.87 E.52842
G1 X128.83 Y88.409 E.01705
G1 X119.286 Y78.865 E.42736
G1 X119.152 Y78.546 E.01097
G1 X118.958 Y78.19 E.01285
G1 X118.729 Y77.854 E.01285
G1 X118.469 Y77.544 E.01284
G1 X118.179 Y77.261 E.01282
G1 X117.703 Y76.899 E.01894
G1 X117.341 Y76.69 E.01323
G1 X116.93 Y76.509 E.01422
G1 X116.491 Y76.07 E.01967
G1 X115.953 Y76.07 E.01705
G1 X116.185 Y76.303 E.01042
G1 X115.788 Y76.253 E.01267
G1 X115.592 Y76.248 E.00621
G1 X115.414 Y76.07 E.00798
G1 X114.875 Y76.07 E.01705
G1 X115.072 Y76.266 E.00878
G1 X114.606 Y76.339 E.01493
G1 X114.337 Y76.07 E.01204
G1 X113.798 Y76.07 E.01705
G1 X114.184 Y76.455 E.01725
G1 X113.798 Y76.608 E.01314
G1 X113.26 Y76.07 E.02409
G1 X112.721 Y76.07 E.01705
G1 X113.442 Y76.791 E.03229
G1 X113.115 Y77.002 E.01233
G1 X112.183 Y76.07 E.04175
G1 X111.644 Y76.07 E.01705
G1 X112.815 Y77.241 E.05242
G1 X112.54 Y77.504 E.01206
G1 X111.106 Y76.07 E.06423
G1 X111.07 Y76.07 E.00113
G1 X111.07 Y76.573 E.01592
G1 X112.29 Y77.793 E.05466
G1 X112.066 Y78.108 E.01223
G1 X111.07 Y77.111 E.04462
G1 X111.07 Y77.65 E.01705
G1 X111.874 Y78.453 E.03599
G1 X111.701 Y78.819 E.01281
G1 X111.07 Y78.188 E.02825
G1 X111.07 Y78.727 E.01705
G1 X111.566 Y79.223 E.02221
G1 X111.47 Y79.665 E.01434
G1 X111.07 Y79.265 E.01791
G1 X111.07 Y79.804 E.01705
G1 X111.421 Y80.155 E.01572
G1 X111.433 Y80.705 E.01743
G1 X111.07 Y80.342 E.01625
G1 X111.07 Y80.881 E.01705
G1 X111.816 Y81.627 E.03343
M204 P1000
G1 E-2.24 F4200
;WIPE_START
G1 F7200
G1 X111.07 Y80.881 E-.58502
G1 X111.07 Y80.342 E-.29844
G1 X111.106 Y80.379 E-.02854
;WIPE_END
G1 E-.048 F4200
G1 Z.4 F720
G1 X119.273 Y79.39 F9000
G1 Z.2 F720
G1 E3.2 F2400
M204 P800
G1 F1200
G1 X128.83 Y88.947 E.42798
G1 X128.83 Y89.486 E.01705
G1 X119.55 Y80.206 E.41556
G1 X119.529 Y80.724 E.01641
G1 X128.83 Y90.025 E.41649
G1 X128.83 Y90.563 E.01705
